mresponse/frontend/app/public/static/media/icons/change-avatar.svg

<?xml version="1.0" encoding="UTF-8"?>
<svg width="22px" height="20px" viewBox="0 0 22 20" version="1.1" xmlns="http://www.w3.org/2000/svg" xmlns:xlink="http://www.w3.org/1999/xlink">
    <!-- Generator: Sketch 51.2 (57519) - http://www.bohemiancoding.com/sketch -->
    <title>Group</title>
    <desc>Created with Sketch.</desc>
    <defs></defs>
    <g id="Page-1" stroke="none" stroke-width="1" fill="none" fill-rule="evenodd">
        <g id="Group" fill="#FFFFFF" fill-rule="nonzero">
            <g>
                <ellipse id="Oval" cx="8.276" cy="6.473" rx="1.509" ry="1.548"></ellipse>
                <path d="M20.659,12.172 C19.95203,11.4805788 19.040948,11.0355584 18.061,10.903 L18.061,3.033 C18.061,2.193 17.726,1.441 17.201,0.882 C16.6529378,0.31468401 15.8967991,-0.00395639616 15.108,3.20842528e-16 L2.954,3.20842528e-16 C2.137,-1.35525272e-20 1.404,0.344 0.86,0.882 C0.301478115,1.45750891 -0.00754418927,2.23006466 -3.38216868e-16,3.032 L-3.38216868e-16,15.871 C-3.38216868e-16,16.71 0.335,17.462 0.859,18.021 C1.40754301,18.5888195 2.16450765,18.9075034 2.954,18.903 L14.71,18.903 C15.485,19.548 16.449,19.957 17.517,19.957 C18.701932,19.9565228 19.8360174,19.4755378 20.66,18.624 C21.4979223,17.7596517 21.964499,16.6018237 21.96,15.398 C21.964499,14.1941763 21.4979223,13.0363483 20.66,12.172 L20.659,12.172 Z M1.11,3.032 C1.11,2.516 1.32,2.043 1.655,1.699 C1.99,1.355 2.451,1.139 2.955,1.139 L15.107,1.139 C15.61,1.139 16.07,1.355 16.406,1.699 C16.741,2.043 16.95,2.516 16.95,3.032 L16.95,9.742 L13.85,6.581 C13.7458893,6.47238405 13.6019542,6.41097088 13.4515,6.41097088 C13.3010458,6.41097088 13.1571107,6.47238405 13.053,6.581 L8.381,11.398 L5.217,8.129 C5.11292101,8.02070111 4.96920348,7.95949183 4.819,7.95949183 C4.66879652,7.95949183 4.52507899,8.02070111 4.421,8.129 L1.111,11.569 L1.111,3.033 L1.11,3.032 Z M2.933,17.785 L2.933,17.763 C2.43,17.763 1.97,17.548 1.634,17.204 C1.29994157,16.8401039 1.11316686,16.364969 1.11,15.871 L1.11,13.183 L4.84,9.355 L8.004,12.602 C8.214,12.817 8.57,12.817 8.8,12.602 L13.472,7.785 L16.532,10.946 L16.342,11.011 C16.259,11.032 16.175,11.054 16.07,11.097 C15.987,11.118 15.903,11.161 15.819,11.183 C15.7589455,11.2029399 15.7022913,11.2319414 15.651,11.269 C15.568,11.312 15.505,11.333 15.441,11.376 L15.128,11.57 C15.065,11.613 15.023,11.634 14.96,11.677 C14.918,11.699 14.897,11.72 14.855,11.742 C14.6680102,11.8696677 14.4988565,12.0216706 14.352,12.194 C13.5146854,13.0582601 13.0484945,14.2156626 13.053,15.419 C13.053,15.742 13.095,16.043 13.158,16.366 C13.179,16.452 13.2,16.516 13.221,16.602 C13.2814913,16.8199804 13.3515593,17.0351892 13.431,17.247 L13.431,17.269 C13.514,17.441 13.598,17.634 13.703,17.785 L2.933,17.785 Z M19.842,17.806 C19.2281119,18.4432784 18.3798483,18.8010888 17.495,18.796 C16.615,18.796 15.798,18.43 15.211,17.849 C15.128,17.763 15.044,17.656 14.96,17.569 C14.897,17.505 14.834,17.419 14.771,17.355 C14.6886267,17.240529 14.6182558,17.1178826 14.561,16.989 C14.52,16.903 14.478,16.839 14.436,16.753 C14.388525,16.6349292 14.3533393,16.5122819 14.331,16.387 C14.311,16.301 14.269,16.194 14.248,16.107 C14.2052941,15.8801744 14.1841996,15.6498094 14.185,15.419 C14.185,14.473 14.562,13.634 15.149,13.011 C15.7626481,12.3739738 16.6104984,12.0161853 17.495,12.021 C18.417,12.021 19.235,12.409 19.842,13.011 C20.45,13.613 20.806,14.473 20.806,15.419 C20.806,16.344 20.429,17.183 19.842,17.806 Z" id="Shape"></path>
                <path d="M19.318,14.817 L18.04,14.817 L18.04,13.505 C18.0426743,13.3527926 17.9843528,13.2058396 17.8780322,13.0968892 C17.7717117,12.9879389 17.6262273,12.9260448 17.474,12.925 C17.3219467,12.9263103 17.1767201,12.9883211 17.0706159,13.0972422 C16.9645117,13.2061634 16.9063267,13.3529646 16.909,13.505 L16.909,14.817 L15.63,14.817 C15.4779467,14.8183103 15.3327201,14.8803211 15.2266159,14.9892422 C15.1205117,15.0981634 15.0623267,15.2449646 15.065,15.397 C15.065,15.72 15.316,15.978 15.63,15.978 L16.909,15.978 L16.909,17.29 C16.909,17.613 17.16,17.871 17.474,17.871 C17.6262273,17.8699552 17.7717117,17.8080611 17.8780322,17.6991108 C17.9843528,17.5901604 18.0426743,17.4432074 18.04,17.291 L18.04,15.978 L19.318,15.978 C19.4702273,15.9769552 19.6157117,15.9150611 19.7220322,15.8061108 C19.8283528,15.6971604 19.8866743,15.5502074 19.884,15.398 C19.8866743,15.2457926 19.8283528,15.0988396 19.7220322,14.9898892 C19.6157117,14.8809389 19.4702273,14.8190448 19.318,14.818 L19.318,14.817 Z" id="Shape"></path>
            </g>
        </g>
    </g>
</svg>

<svg width="22" height="20" xmlns="http://www.w3.org/2000/svg"><g fill="#FFF" fill-rule="nonzero"><ellipse cx="8.276" cy="6.473" rx="1.509" ry="1.548"/><path d="M20.659 12.172a4.597 4.597 0 00-2.598-1.269v-7.87c0-.84-.335-1.592-.86-2.151A2.89 2.89 0 0015.108 0H2.954C2.137 0 1.404.344.86.882A3.046 3.046 0 000 3.032v12.839c0 .839.335 1.591.859 2.15a2.89 2.89 0 002.095.882H14.71c.775.645 1.739 1.054 2.807 1.054a4.376 4.376 0 003.143-1.333 4.61 4.61 0 001.3-3.226 4.61 4.61 0 00-1.3-3.226h-.001zM1.11 3.032c0-.516.21-.989.545-1.333.335-.344.796-.56 1.3-.56h12.152c.503 0 .963.216 1.299.56.335.344.544.817.544 1.333v6.71l-3.1-3.161a.552.552 0 00-.797 0l-4.672 4.817-3.164-3.269a.552.552 0 00-.796 0l-3.31 3.44V3.033l-.001-.001zm1.823 14.753v-.022c-.503 0-.963-.215-1.299-.559a1.99 1.99 0 01-.524-1.333v-2.688l3.73-3.828 3.164 3.247c.21.215.566.215.796 0l4.672-4.817 3.06 3.161-.19.065a1.884 1.884 0 00-.272.086c-.083.021-.167.064-.251.086a.621.621 0 00-.168.086c-.083.043-.146.064-.21.107l-.313.194c-.063.043-.105.064-.168.107-.042.022-.063.043-.105.065a2.55 2.55 0 00-.503.452 4.61 4.61 0 00-1.299 3.225c0 .323.042.624.105.947.021.086.042.15.063.236.06.218.13.433.21.645v.022c.083.172.167.365.272.516H2.933zm16.909.021a3.233 3.233 0 01-2.347.99c-.88 0-1.697-.366-2.284-.947-.083-.086-.167-.193-.251-.28-.063-.064-.126-.15-.189-.214a2.055 2.055 0 01-.21-.366c-.041-.086-.083-.15-.125-.236a1.853 1.853 0 01-.105-.366c-.02-.086-.062-.193-.083-.28a3.65 3.65 0 01-.063-.688c0-.946.377-1.785.964-2.408a3.233 3.233 0 012.346-.99c.922 0 1.74.388 2.347.99.608.602.964 1.462.964 2.408 0 .925-.377 1.764-.964 2.387z"/><path d="M19.318 14.817H18.04v-1.312a.57.57 0 00-.566-.58.57.57 0 00-.565.58v1.312H15.63a.57.57 0 00-.565.58.57.57 0 00.565.581h1.279v1.312a.57.57 0 00.565.581.57.57 0 00.566-.58v-1.313h1.278a.57.57 0 00.566-.58.57.57 0 00-.566-.58v-.001z"/></g></svg>
